source/presentation/public/images/icons/types/darkness.svg

<svg width="1em" height="1em" viewBox="0 0 35 35" fill="none" xmlns="http://www.w3.org/2000/svg">
<circle cx="17.5" cy="17.5" r="17.5" fill="#3D5669"/>
<path d="M17 17.2886C20.3137 17.2886 23 14.1993 23 10.3886C23 8.83409 22.553 7.39967 21.7988 6.24603C21.7159 6.11929 21.8447 5.95265 21.9838 6.0126C26.4639 7.94399 29.6 12.4 29.6 17.5886C29.6 24.5473 23.9588 30.1886 17 30.1886C10.0412 30.1886 4.39999 24.5473 4.39999 17.5886C4.39999 12.4 7.53612 7.94399 12.0162 6.0126C12.1553 5.95265 12.2841 6.11929 12.2012 6.24603C11.447 7.39967 11 8.83409 11 10.3886C11 14.1993 13.6863 17.2886 17 17.2886Z" fill="black"/>
</svg>

<svg width="1em" height="1em" viewBox="0 0 35 35" xmlns="http://www.w3.org/2000/svg">
<circle cx="17.5" cy="17.5" r="17.5" fill="#3D5669"/>
<path d="m17 17.289c3.3137 0 6-3.0893 6-6.9 0-1.5545-0.447-2.9889-1.2012-4.1426-0.0829-0.12674 0.0459-0.29338 0.185-0.23343 4.4801 1.9314 7.6162 6.3874 7.6162 11.576 0 6.9587-5.6412 12.6-12.6 12.6s-12.6-5.6413-12.6-12.6c0-5.1886 3.1361-9.6446 7.6162-11.576 0.1391-0.05995 0.2679 0.10669 0.185 0.23343-0.7542 1.1536-1.2012 2.5881-1.2012 4.1426 0 3.8107 2.6863 6.9 6 6.9z"/>
</svg>
